!!!OTL: "Die schoene Joppe" DA BAUA VAKAUFT SEINN AKR
!!!ARE: Europa, Mitteleuropa, Oesterreich
!!!SCT: Z1336
!!!YEM: Copyright 1995, estate of Helmut Schaffrath.
**kern
*ICvox
*Ivox
*M3/4
*k[f#]
*G:
{4d
=1
4g
4g
4ee
=2
2dd
4cc
=3
4b
4b
4a
=4
2g}
{4g
=5
4a
4a
4a
=6
4a
4a
8a
8g
=7
4f#
4f#
4e
=8
2d}
{4d
=9
4g
4g
4a
=10
4b
4b
8cc
8cc
=11
4dd
4dd}
{8ee
8ee
=12
4dd
4dd
8cc
8cc
=13
4b
4b
4a
=14
2g}
==
!!!AGN: Zech -, Schalks - Lied
!!!ONB: ESAC (Essen Associative Code) Database: ZUCCAL
!!!AMT: simple triple
!!!AIN: vox
!!!EED: Helmut Schaffrath
!!!EEV: 1.0
*-
